X: 1
T: Shaped by the Stream (working title)
R: waltz
M: 3/4
L: 1/8
K: Dmaj
 dc |: B4 A2 | F3 ED2 | E2 F2 D2 | B,2 A,2 B,2 | D4 E2 | F3 ED2 | E2 F2 A2 | B4 dc | 
| B4 A2 | F3 ED2 | E2 F2 D2 | E2 D2 B,2 | E3 F/E/D2 | E2 D2 B,2 | A,2 B,2 C2 |1 D4 dc :|2 D6 ||
|: ef d2 A2 | B3 cA2 | B3 cA2 | B2 A2 G2 | ef d2 A2 | B3 AG2 | F3 GD2 | E6 | 
| ef d2 A2 | B3 cA2 | B3 cA2 | B2 A2 G2 | F2 G2 D2 | E3 F/E/D2 |1 E3 F/E/D2 | E3 F/E/D2 :|2 {A,}B,3 A,C2| D4 || 

